X: 8
T: The Walls Of Liscarrol
R: jig
M: 6/8
L: 1/8
K: Ddor
|:dcA AGE | GED D2E | GEE cEE | GAB cde |
dcA AGE | GED D2E | GEE cEE | DED D3:|
|:dAd ecA | dAd ecA | GEE cEE | GAB cde |
[1 dAd ecA | dAd ecA | GEE cEE |DED D3 :|
[2 dcA AGE | GED D2E | GEE cEE |DED D3 |]


Tune 232	Setting 12928

